app/img/svg/ukazhite-polomku.svg

<?xml version="1.0" encoding="UTF-8"?>
<svg width="192px" height="193px" viewBox="0 0 192 193" version="1.1" xmlns="http://www.w3.org/2000/svg" xmlns:xlink="http://www.w3.org/1999/xlink">
    <!-- Generator: sketchtool 41 (35326) - http://www.bohemiancoding.com/sketch -->
    <title>355F0BC8-6192-4AE8-8703-0E03EB1F6209</title>
    <desc>Created with sketchtool.</desc>
    <defs>
        <rect id="path-1" x="0" y="0" width="1280" height="608"></rect>
        <mask id="mask-2" maskContentUnits="userSpaceOnUse" maskUnits="objectBoundingBox" x="0" y="0" width="1280" height="608" fill="white">
            <use xlink:href="#path-1"></use>
        </mask>
        <polygon id="path-3" points="0 192 192 192 192 0 0 0"></polygon>
    </defs>
    <g id="Landing-64" stroke="none" stroke-width="1" fill="none" fill-rule="evenodd">
        <g id="Desktop-1248-13" transform="translate(-160.000000, -2080.000000)">
            <g id="Group-4" transform="translate(0.000000, 1952.000000)" stroke="#142E99" stroke-width="24" fill="#FFFFFF">
                <use id="Rectangle-Copy-4" mask="url(#mask-2)" xlink:href="#path-1"></use>
            </g>
            <g id="ukazhite-polomku" transform="translate(160.000000, 2080.000000)">
                <path d="M156.3335,74.1179 C156.3335,75.5909 155.1395,76.7849 153.6665,76.7849 C152.1945,76.7849 151.0005,75.5909 151.0005,74.1179 C151.0005,72.6449 152.1945,71.4509 153.6665,71.4509 C155.1395,71.4509 156.3335,72.6449 156.3335,74.1179 L156.3335,74.1179 Z" id="Fill-1" fill="#FFFFFF"></path>
                <path d="M153.667,72.4511 C152.748,72.4511 152,73.1991 152,74.1181 C152,75.0371 152.748,75.7841 153.667,75.7841 C154.586,75.7841 155.334,75.0371 155.334,74.1181 C155.334,73.1991 154.586,72.4511 153.667,72.4511 M153.667,77.7841 C151.645,77.7841 150,76.1391 150,74.1181 C150,72.0961 151.645,70.4511 153.667,70.4511 C155.688,70.4511 157.334,72.0961 157.334,74.1181 C157.334,76.1391 155.688,77.7841 153.667,77.7841" id="Fill-3" fill="#132E99"></path>
                <path d="M151.0002,116.7845 L39.0002,116.7845 C34.6002,116.7845 31.0002,113.1845 31.0002,108.7845 L31.0002,39.4515 C31.0002,35.0515 34.6002,31.4515 39.0002,31.4515 L151.0002,31.4515 C155.4002,31.4515 159.0002,35.0515 159.0002,39.4515 L159.0002,108.7845 C159.0002,113.1845 155.4002,116.7845 151.0002,116.7845" id="Fill-5" fill="#FFFFFF"></path>
                <path d="M39,32.4511 C35.14,32.4511 32,35.5921 32,39.4511 L32,108.7841 C32,112.6431 35.14,115.7841 39,115.7841 L151,115.7841 C154.86,115.7841 158,112.6431 158,108.7841 L158,39.4511 C158,35.5921 154.86,32.4511 151,32.4511 L39,32.4511 Z M151,117.7841 L39,117.7841 C34.038,117.7841 30,113.7471 30,108.7841 L30,39.4511 C30,34.4881 34.038,30.4511 39,30.4511 L151,30.4511 C155.962,30.4511 160,34.4881 160,39.4511 L160,108.7841 C160,113.7471 155.962,117.7841 151,117.7841 L151,117.7841 Z" id="Fill-7" fill="#132E99"></path>
                <mask id="mask-4" fill="white">
                    <use xlink:href="#path-3"></use>
                </mask>
                <g id="Clip-10"></g>
                <polygon id="Fill-9" fill="#FFFFFF" mask="url(#mask-4)" points="41.666 111.451 148.333 111.451 148.333 36.784 41.666 36.784"></polygon>
                <path d="M42.667,110.451 L147.334,110.451 L147.334,37.784 L42.667,37.784 L42.667,110.451 Z M40.666,112.451 L149.333,112.451 L149.333,35.784 L40.666,35.784 L40.666,112.451 Z" id="Fill-11" fill="#132E99" mask="url(#mask-4)"></path>
                <path d="M36.3335,68.7845 L36.3335,79.4515" id="Fill-12" fill="#FFFFFF" mask="url(#mask-4)"></path>
                <path d="M36.3335,80.4511 C35.7815,80.4511 35.3335,80.0041 35.3335,79.4511 L35.3335,68.7841 C35.3335,68.2311 35.7815,67.7841 36.3335,67.7841 C36.8855,67.7841 37.3335,68.2311 37.3335,68.7841 L37.3335,79.4511 C37.3335,80.0041 36.8855,80.4511 36.3335,80.4511" id="Fill-13" fill="#132E99" mask="url(#mask-4)"></path>
                <path d="M87.0002,154.1179 L60.3332,154.1179 C55.9332,154.1179 52.3332,150.5179 52.3332,146.1179 L52.3332,76.7849 C52.3332,72.3849 55.9332,68.7849 60.3332,68.7849 L87.0002,68.7849 C91.4002,68.7849 95.0002,72.3849 95.0002,76.7849 L95.0002,146.1179 C95.0002,150.5179 91.4002,154.1179 87.0002,154.1179" id="Fill-14" fill="#FFFFFF" mask="url(#mask-4)"></path>
                <path d="M60.3335,69.7841 C56.4735,69.7841 53.3335,72.9251 53.3335,76.7841 L53.3335,146.1181 C53.3335,149.9771 56.4735,153.1181 60.3335,153.1181 L87.0005,153.1181 C90.8595,153.1181 94.0005,149.9771 94.0005,146.1181 L94.0005,76.7841 C94.0005,72.9251 90.8595,69.7841 87.0005,69.7841 L60.3335,69.7841 Z M87.0005,155.1181 L60.3335,155.1181 C55.3715,155.1181 51.3335,151.0811 51.3335,146.1181 L51.3335,76.7841 C51.3335,71.8211 55.3715,67.7841 60.3335,67.7841 L87.0005,67.7841 C91.9625,67.7841 96.0005,71.8211 96.0005,76.7841 L96.0005,146.1181 C96.0005,151.0811 91.9625,155.1181 87.0005,155.1181 L87.0005,155.1181 Z" id="Fill-15" fill="#132E99" mask="url(#mask-4)"></path>
                <polygon id="Fill-16" fill="#FFFFFF" mask="url(#mask-4)" points="57.667 143.451 89.667 143.451 89.667 79.451 57.667 79.451"></polygon>
                <path d="M58.667,142.451 L88.667,142.451 L88.667,80.451 L58.667,80.451 L58.667,142.451 Z M89.667,144.451 L57.667,144.451 C57.115,144.451 56.667,144.004 56.667,143.451 L56.667,79.451 C56.667,78.898 57.115,78.451 57.667,78.451 L89.667,78.451 C90.219,78.451 90.667,78.898 90.667,79.451 L90.667,143.451 C90.667,144.004 90.219,144.451 89.667,144.451 L89.667,144.451 Z" id="Fill-17" fill="#132E99" mask="url(#mask-4)"></path>
                <path d="M68.3335,74.1179 L79.0005,74.1179" id="Fill-18" fill="#FFFFFF" mask="url(#mask-4)"></path>
                <path d="M79,75.1181 L68.333,75.1181 C67.781,75.1181 67.333,74.6711 67.333,74.1181 C67.333,73.5651 67.781,73.1181 68.333,73.1181 L79,73.1181 C79.552,73.1181 80,73.5651 80,74.1181 C80,74.6711 79.552,75.1181 79,75.1181" id="Fill-19" fill="#132E99" mask="url(#mask-4)"></path>
                <path d="M76.3335,148.7845 C76.3335,150.2575 75.1395,151.4515 73.6665,151.4515 C72.1945,151.4515 71.0005,150.2575 71.0005,148.7845 C71.0005,147.3115 72.1945,146.1175 73.6665,146.1175 C75.1395,146.1175 76.3335,147.3115 76.3335,148.7845" id="Fill-20" fill="#FFFFFF" mask="url(#mask-4)"></path>
                <path d="M73.667,147.1181 C72.748,147.1181 72,147.8651 72,148.7841 C72,149.7031 72.748,150.4511 73.667,150.4511 C74.586,150.4511 75.334,149.7031 75.334,148.7841 C75.334,147.8651 74.586,147.1181 73.667,147.1181 M73.667,152.4511 C71.645,152.4511 70,150.8061 70,148.7841 C70,146.7631 71.645,145.1181 73.667,145.1181 C75.688,145.1181 77.334,146.7631 77.334,148.7841 C77.334,150.8061 75.688,152.4511 73.667,152.4511" id="Fill-21" fill="#132E99" mask="url(#mask-4)"></path>
                <path d="M135.0002,164.7845 L124.3332,164.7845 C119.9332,164.7845 116.3332,161.1845 116.3332,156.7845 L116.3332,138.1175 L116.3332,135.4515 C116.3332,131.0515 119.9332,127.4515 124.3332,127.4515 L135.0002,127.4515 C139.4002,127.4515 143.0002,131.0515 143.0002,135.4515 L143.0002,156.7845 C143.0002,161.1845 139.4002,164.7845 135.0002,164.7845" id="Fill-22" fill="#FFFFFF" mask="url(#mask-4)"></path>
                <path d="M135.0002,127.4511 L124.3332,127.4511 C119.9332,127.4511 116.3332,131.0511 116.3332,135.4511 L116.3332,138.1181 L116.3332,156.7841 C116.3332,161.1841 119.9332,164.7841 124.3332,164.7841 L135.0002,164.7841 C139.4002,164.7841 143.0002,161.1841 143.0002,156.7841 L143.0002,135.4511 C143.0002,131.0511 139.4002,127.4511 135.0002,127.4511 M135.0002,129.4511 C138.3082,129.4511 141.0002,132.1421 141.0002,135.4511 L141.0002,156.7841 C141.0002,160.0931 138.3082,162.7841 135.0002,162.7841 L124.3332,162.7841 C121.0252,162.7841 118.3332,160.0931 118.3332,156.7841 L118.3332,138.1181 L118.3332,135.4511 C118.3332,132.1421 121.0252,129.4511 124.3332,129.4511 L135.0002,129.4511" id="Fill-23" fill="#132E99" mask="url(#mask-4)"></path>
                <path d="M116.3335,148.7845 L116.3335,154.1175" id="Fill-24" fill="#FFFFFF" mask="url(#mask-4)"></path>
                <path d="M116.3335,155.1181 C115.7815,155.1181 115.3335,154.6711 115.3335,154.1181 L115.3335,148.7841 C115.3335,148.2311 115.7815,147.7841 116.3335,147.7841 C116.8855,147.7841 117.3335,148.2311 117.3335,148.7841 L117.3335,154.1181 C117.3335,154.6711 116.8855,155.1181 116.3335,155.1181" id="Fill-25" fill="#132E99" mask="url(#mask-4)"></path>
                <polyline id="Fill-26" fill="#FFFFFF" mask="url(#mask-4)" points="84.3335 84.7845 73.6665 100.7845 84.3335 106.1175 73.6665 122.1175"></polyline>
                <path d="M73.666,123.1181 C73.476,123.1181 73.283,123.0631 73.112,122.9501 C72.653,122.6431 72.529,122.0231 72.835,121.5631 L82.873,106.5061 L72.207,101.1721 L83.501,84.2291 C83.808,83.7691 84.428,83.6461 84.888,83.9521 C85.348,84.2591 85.472,84.8791 85.166,85.3391 L75.127,100.3961 L85.794,105.7301 L74.499,122.6731 C74.306,122.9621 73.989,123.1181 73.666,123.1181" id="Fill-27" fill="#132E99" mask="url(#mask-4)"></path>
                <polyline id="Fill-28" fill="#FFFFFF" mask="url(#mask-4)" points="143.0002 42.1179 127.0002 66.1179 143.0002 74.1179 127.0002 98.1179"></polyline>
                <path d="M126.999,99.1181 C126.809,99.1181 126.616,99.0631 126.445,98.9501 C125.986,98.6431 125.862,98.0231 126.168,97.5631 L141.54,74.5061 L125.54,66.5061 L142.168,41.5631 C142.474,41.1031 143.095,40.9801 143.555,41.2861 C144.014,41.5931 144.138,42.2131 143.832,42.6731 L128.46,65.7301 L144.46,73.7301 L127.832,98.6731 C127.639,98.9621 127.322,99.1181 126.999,99.1181" id="Fill-29" fill="#132E99" mask="url(#mask-4)"></path>
                <polyline id="Fill-30" fill="#FFFFFF" mask="url(#mask-4)" points="137.6668 132.7845 132.3338 140.7845 137.6668 143.4515 132.3338 151.4515"></polyline>
                <path d="M132.3325,152.4511 C132.1425,152.4511 131.9495,152.3961 131.7785,152.2831 C131.3195,151.9761 131.1955,151.3561 131.5015,150.8961 L136.2065,143.8391 L130.8735,141.1721 L136.8345,132.2291 C137.1415,131.7691 137.7615,131.6451 138.2215,131.9521 C138.6815,132.2591 138.8055,132.8791 138.4995,133.3391 L133.7935,140.3961 L139.1275,143.0631 L133.1655,152.0061 C132.9725,152.2951 132.6555,152.4511 132.3325,152.4511" id="Fill-31" fill="#132E99" mask="url(#mask-4)"></path>
                <polygon id="Fill-32" fill="#F92855" mask="url(#mask-4)" points="97.6668 39.4512 110.9998 26.1182 124.3338 39.4512 110.9998 52.7842"></polygon>
                <path d="M106.5557,39.4512 C106.5557,36.9962 108.5457,35.0072 110.9997,35.0072 C113.4547,35.0072 115.4447,36.9962 115.4447,39.4512 C115.4447,41.9062 113.4547,43.8952 110.9997,43.8952 C108.5457,43.8952 106.5557,41.9062 106.5557,39.4512" id="Fill-33" fill="#FFFFFF" mask="url(#mask-4)"></path>
                <polygon id="Fill-34" fill="#F92855" mask="url(#mask-4)" points="41.6668 132.7845 54.9998 119.4515 68.3338 132.7845 54.9998 146.1175"></polygon>
                <path d="M50.5557,132.7845 C50.5557,130.3295 52.5457,128.3405 54.9997,128.3405 C57.4547,128.3405 59.4447,130.3295 59.4447,132.7845 C59.4447,135.2395 57.4547,137.2285 54.9997,137.2285 C52.5457,137.2285 50.5557,135.2395 50.5557,132.7845" id="Fill-35" fill="#FFFFFF" mask="url(#mask-4)"></path>
                <polygon id="Fill-36" fill="#F92855" mask="url(#mask-4)" points="105.6668 135.4512 118.9998 122.1182 132.3338 135.4512 118.9998 148.7842"></polygon>
                <path d="M114.5557,135.4512 C114.5557,132.9962 116.5457,131.0072 118.9997,131.0072 C121.4547,131.0072 123.4447,132.9962 123.4447,135.4512 C123.4447,137.9062 121.4547,139.8952 118.9997,139.8952 C116.5457,139.8952 114.5557,137.9062 114.5557,135.4512" id="Fill-37" fill="#FFFFFF" mask="url(#mask-4)"></path>
            </g>
        </g>
    </g>
</svg>

<svg width="192" height="193" viewBox="0 0 192 193" xmlns="http://www.w3.org/2000/svg" xmlns:xlink="http://www.w3.org/1999/xlink">
    <title>
        355F0BC8-6192-4AE8-8703-0E03EB1F6209
    </title>
    <defs>
        <path id="a" d="M0 0h1280v608H0z"/>
        <mask id="b" x="0" y="0" width="1280" height="608" fill="#fff">
            <use xlink:href="#a"/>
        </mask>
        <path id="c" d="M0 192h192V0H0z"/>
    </defs>
    <g fill="none" fill-rule="evenodd">
        <use mask="url(#b)" xlink:href="#a" transform="translate(-160 -128)" stroke="#142E99" stroke-width="24" fill="#FFF"/>
        <path d="M156.333 74.118a2.667 2.667 0 1 1-5.333 0 2.667 2.667 0 0 1 5.333 0z" fill="#FFF"/>
        <path d="M153.667 72.451A1.67 1.67 0 0 0 152 74.118a1.668 1.668 0 0 0 3.334 0 1.67 1.67 0 0 0-1.667-1.667m0 5.333A3.67 3.67 0 0 1 150 74.118a3.671 3.671 0 0 1 3.667-3.667 3.672 3.672 0 0 1 3.667 3.667 3.672 3.672 0 0 1-3.667 3.666" fill="#132E99"/>
        <path d="M151 116.784H39c-4.4 0-8-3.6-8-8V39.451c0-4.4 3.6-8 8-8h112c4.4 0 8 3.6 8 8v69.334c0 4.4-3.6 8-8 8" fill="#FFF"/>
        <path d="M39 32.451c-3.86 0-7 3.141-7 7v69.333c0 3.86 3.14 7 7 7h112c3.86 0 7-3.14 7-7V39.451c0-3.859-3.14-7-7-7H39zm112 85.333H39c-4.962 0-9-4.037-9-9V39.451c0-4.963 4.038-9 9-9h112c4.962 0 9 4.037 9 9v69.333c0 4.963-4.038 9-9 9z" fill="#132E99"/>
        <mask id="d" fill="#fff">
            <use xlink:href="#c"/>
        </mask>
        <path fill="#FFF" mask="url(#d)" d="M41.666 111.451h106.667V36.784H41.666z"/>
        <path d="M42.667 110.451h104.667V37.784H42.667v72.667zm-2.001 2h108.667V35.784H40.666v76.667z" fill="#132E99" mask="url(#d)"/>
        <path d="M36.334 68.784v10.667" fill="#FFF" mask="url(#d)"/>
        <path d="M36.334 80.451a1 1 0 0 1-1-1V68.784a1 1 0 1 1 2 0v10.667a1 1 0 0 1-1 1" fill="#132E99" mask="url(#d)"/>
        <path d="M87 154.118H60.333c-4.4 0-8-3.6-8-8V76.785c0-4.4 3.6-8 8-8H87c4.4 0 8 3.6 8 8v69.333c0 4.4-3.6 8-8 8" fill="#FFF" mask="url(#d)"/>
        <path d="M60.334 69.784c-3.86 0-7 3.141-7 7v69.334c0 3.86 3.14 7 7 7H87c3.86 0 7-3.14 7-7V76.784c0-3.859-3.14-7-7-7H60.335zM87 155.118H60.335c-4.963 0-9-4.037-9-9V76.784c0-4.963 4.037-9 9-9H87c4.963 0 9 4.037 9 9v69.334c0 4.963-4.037 9-9 9z" fill="#132E99" mask="url(#d)"/>
        <path fill="#FFF" mask="url(#d)" d="M57.667 143.451h32v-64h-32z"/>
        <path d="M58.667 142.451h30v-62h-30v62zm31 2h-32a1 1 0 0 1-1-1v-64a1 1 0 0 1 1-1h32a1 1 0 0 1 1 1v64a1 1 0 0 1-1 1z" fill="#132E99" mask="url(#d)"/>
        <path d="M68.334 74.118H79" fill="#FFF" mask="url(#d)"/>
        <path d="M79 75.118H68.333a1 1 0 1 1 0-2H79a1 1 0 1 1 0 2" fill="#132E99" mask="url(#d)"/>
        <path d="M76.334 148.785a2.667 2.667 0 1 1-5.334 0 2.667 2.667 0 0 1 5.334 0" fill="#FFF" mask="url(#d)"/>
        <path d="M73.667 147.118c-.919 0-1.667.747-1.667 1.666a1.67 1.67 0 0 0 1.667 1.667 1.67 1.67 0 0 0 1.667-1.667c0-.919-.748-1.666-1.667-1.666m0 5.333A3.671 3.671 0 0 1 70 148.784a3.67 3.67 0 0 1 3.667-3.666 3.672 3.672 0 0 1 3.667 3.666 3.672 3.672 0 0 1-3.667 3.667" fill="#132E99" mask="url(#d)"/>
        <path d="M135 164.785h-10.667c-4.4 0-8-3.6-8-8v-21.333c0-4.4 3.6-8 8-8H135c4.4 0 8 3.6 8 8v21.333c0 4.4-3.6 8-8 8" fill="#FFF" mask="url(#d)"/>
        <path d="M135 127.451h-10.667c-4.4 0-8 3.6-8 8v21.333c0 4.4 3.6 8 8 8H135c4.4 0 8-3.6 8-8v-21.333c0-4.4-3.6-8-8-8m0 2c3.308 0 6 2.691 6 6v21.333c0 3.31-2.692 6-6 6h-10.667c-3.308 0-6-2.69-6-6v-21.333c0-3.309 2.692-6 6-6H135" fill="#132E99" mask="url(#d)"/>
        <path d="M116.334 148.785v5.333" fill="#FFF" mask="url(#d)"/>
        <path d="M116.334 155.118a1 1 0 0 1-1-1v-5.334a1 1 0 1 1 2 0v5.334a1 1 0 0 1-1 1" fill="#132E99" mask="url(#d)"/>
        <path fill="#FFF" mask="url(#d)" d="M84.334 84.784l-10.668 16 10.668 5.334-10.668 16"/>
        <path d="M73.666 123.118a1.001 1.001 0 0 1-.831-1.555l10.038-15.057-10.666-5.334L83.501 84.23a1 1 0 0 1 1.665 1.11l-10.039 15.057 10.667 5.334-11.295 16.943a1 1 0 0 1-.833.445" fill="#132E99" mask="url(#d)"/>
        <path fill="#FFF" mask="url(#d)" d="M143 42.118l-16 24 16 8-16 24"/>
        <path d="M126.999 99.118a1.001 1.001 0 0 1-.831-1.555l15.372-23.057-16-8 16.628-24.943a1 1 0 1 1 1.664 1.11L128.46 65.73l16 8-16.628 24.943a1 1 0 0 1-.833.445" fill="#132E99" mask="url(#d)"/>
        <path fill="#FFF" mask="url(#d)" d="M137.667 132.785l-5.333 8 5.333 2.667-5.333 8"/>
        <path d="M132.333 152.451a1.001 1.001 0 0 1-.831-1.555l4.704-7.057-5.332-2.667 5.96-8.943a1 1 0 1 1 1.665 1.11l-4.706 7.057 5.334 2.667-5.962 8.943a1 1 0 0 1-.832.445" fill="#132E99" mask="url(#d)"/>
        <path fill="#F92855" mask="url(#d)" d="M97.667 39.451L111 26.118l13.334 13.333L111 52.784z"/>
        <path d="M106.556 39.451a4.444 4.444 0 1 1 8.889 0 4.444 4.444 0 0 1-8.89 0" fill="#FFF" mask="url(#d)"/>
        <path fill="#F92855" mask="url(#d)" d="M41.667 132.785L55 119.45l13.334 13.334L55 146.118z"/>
        <path d="M50.556 132.785a4.444 4.444 0 1 1 8.889 0 4.444 4.444 0 0 1-8.89 0" fill="#FFF" mask="url(#d)"/>
        <path fill="#F92855" mask="url(#d)" d="M105.667 135.451L119 122.118l13.334 13.333L119 148.784z"/>
        <path d="M114.556 135.451a4.444 4.444 0 1 1 8.889 0 4.444 4.444 0 0 1-8.89 0" fill="#FFF" mask="url(#d)"/>
    </g>
</svg>
